X:262
T:Chicago Reel
S:As played by Oisin
Z:Nigel Gatherer
M:4/4
L:1/8
K:A dorian
B|c2 cB cAGE|G2 GE GAcd|ecgc acgc|eaag eged|
cded cAGE|G2 GE GAcd|eaag eged|cABG A3:|
B|cdef g2 ef|g2 gd BGGB|cdef ge c2|eaag aged|
cdef g2 fg|a3 f g2 ag|f3 d (3efg ed|cABG A3:|
<end>
<start>
